X:1
T:Title
%%score { ( 1 4 5 ) | ( 2 3 ) }
L:1/8
M:9/8
K:Ab
V:1 treble nm="Grand Piano"
V:4 treble 
V:5 treble 
V:2 bass 
V:3 bass 
V:1
 z3 z3[Q:1/4=100] EFG | [CA]3 [CA]3 [EA][DG][CA] | B2 G E3 EGA | B3 B3 BAB |[M:3/4] c6 | %5
[M:3/8] cBc |[M:9/8] d3 [DGB]3 [DGB]A[B,GB] | z3 z3 .A3 | [EGB]3 [Ge]3 =dc[Ad] |[M:3/4] [Ge]6 | %10
[M:12/8][K:bass] E,F,G,[K:treble] z3 A2 A A2[K:bass] E, | C,2 E, z2[K:treble] A A2 A A2 A | %12
 F,G,A,[K:treble] z3 A2 A A2 A, | G,2 F, z2 G G2[K:treble] G G3 | %14
 E,F,G,[K:treble] z3 A2 A A2[K:bass] E, | C,2 A,, z2 A A2[K:treble] A A2 A | %16
 z6[K:treble] z3 .G3[K:bass] |[M:9/8] C,2 B,, z2 A A2 A | A3 z3 z3 |] %19
V:2
 z3 z3 z =D[E,_D] | [A,,E,]3 [A,,E,]3 [C,A,][B,,E,][A,,A,] | %2
 [E,E]2- [E,B,E] [E,G,]3 E,-[E,B,E][E,A,C] | [E,G,E]3 [E,G,E]3 [G,E][F,E][E,G,E] |[M:3/4] [A,E]6 | %5
[M:3/8] [A,E][G,B,E][A,E] |[M:9/8] [E,B,E]3 E,3 z CE, | [A,,A,]3 A,,3 C,B,,A,, | %8
 B,,3 [B,,B,]3 [B,,B,]2 [B,,B,] |[M:3/4] [E,B,]6 |[M:12/8] z6[K:treble] [CE]2 [CE] .[CE]3 | %11
 z3 z2[K:bass] [A,D] [A,D]2 [A,D] [A,D]2 [A,D] | z6[K:treble] [=DF]2 [DF] .[DF]3 | %13
 z3 z2 [DE] [DE]2 [DE] [DE]3 | z6 [CE]2 [CE] .[CE]3 | z3 z2 [DF] [DF]2 [DF] [DF]2 [DF] | %16
 z6[K:bass] [B,D]2 [B,D] .[B,D]3 |[M:9/8] z3 z2 [A,C] [F,D]2 [F,D] | [E,C]3 z3 z3 |] %19
V:3
 z3 z3 .E,3 | x9 | .G,3 z3 .G,3 | z3 z3 .E,3 |[M:3/4] x6 |[M:3/8] x3 |[M:9/8] z3 z3 .E,3 | x9 | %8
 x9 |[M:3/4] x6 |[M:12/8] x6[K:treble] x6 | z6[K:bass] z3 F,3 | x6[K:treble] x6 | x12 | x12 | x12 | %16
 x6[K:bass] x6 |[M:9/8] x9 | x9 |] %19
V:4
 x9 | x9 | x9 | x9 |[M:3/4] x6 |[M:3/8] x3 |[M:9/8] x9 | [Ec]3 [CEA]3 E-[EGB][EAc] | z3 z3 .A3 | %9
[M:3/4] x6 |[M:12/8][K:bass] z3[K:treble] A,6- A,2[K:bass] z | z3 F,6[K:treble] z3 | %12
 z3[K:treble] B,6- B,2 z | z3 E,3- E,6[K:treble] | z3[K:treble] A,6- A,2[K:bass] z | %15
 z3 D,3- D,6[K:treble] | D,E,F,[K:treble] z3 G2 G z[K:bass] F,E, |[M:9/8] z3 A,,6- | A,,3 z3 z3 |] %19
V:5
 x9 | x9 | x9 | x9 |[M:3/4] x6 |[M:3/8] x3 |[M:9/8] x9 | x9 | x9 |[M:3/4] x6 | %10
[M:12/8][K:bass] x3[K:treble] x8[K:bass] x | x5[K:treble] x7 | x3[K:treble] x9 | x8[K:treble] x4 | %14
 x3[K:treble] x8[K:bass] x | x8[K:treble] x4 | z3[K:treble] E,6- E,[K:bass] z z |[M:9/8] x9 | x9 |] %19

